X:52
T:March. JMP.052
M:C
L:1/8
Q:1/2=90
C:â€57â€³
S:John Miller MS. Perth, 1799.(for the fife)
R:.March
O:Scotland
A:Perth
H:1799
Z:vmp.C. Graebe
K:G Major
â€œ_key D in MSâ€D/E/F/ | G2 B>G A2 c>A | B>gf>e d2 (c>B) |\
â€œtrâ€c2 e>c â€œtrâ€B2 d>B | A>GA>B A>cB>A |!
G2 B>G A2 c>A | B>gf>e d2 ((3Bcd) |\
e2 c>e â€œtrâ€f2 ((3def) | g2 G>G G2 :|!
|: B>c | d2 d>d d2 ((3BdB) |\
G2 G>G G2 e>g | g>fe>d B>dG>B | A2 A>A A2 ((3DEF) |!
G2 B>G A2 c>A | B>gf>e d2 ((3Bcd) | e2 ((3cde) f2 ((3def) |\
g2 G>G G2 ğŸ˜

